static/images/icons/party.svg

<svg width="650" height="650" fill="none" xmlns="http://www.w3.org/2000/svg"><path d="M0 325C0 81.25 81.25 0 325 0s325 81.25 325 325-81.25 325-325 325S0 568.75 0 325z" fill="#266DD3"/><g clip-path="url(#clip0)"><path fill-rule="evenodd" clip-rule="evenodd" d="M223.125 464.805l38.618-16.54-45.779-124.964-22.05 61.754 29.211 79.75zm-36.64-58.958l-23.778 66.576c-2.936 8.22 5.331 15.993 13.355 12.556l34.068-14.595-23.645-64.537zm88.253 36.852l41.442-17.769-49.183-129.117-20.208-17.963c-5.298-4.71-13.679-2.564-16.062 4.112l-7.334 20.547 51.345 140.19zm91.788-39.335c6.735-2.887 8.181-11.798 2.704-16.666l-79.379-70.559 39.338 103.226 37.337-16.001zm2.807-76.871l31.089-20.411c3.249-2.147 4.167-6.525 2.02-9.788-2.147-3.277-6.54-4.167-9.775-2.02l-31.089 20.41c-3.263 2.133-4.167 6.512-2.034 9.775a7.04 7.04 0 005.904 3.192 7.01 7.01 0 003.885-1.158zm-42.276-60.907l15.707-33.731c1.652-3.531.113-7.74-3.419-9.379-3.545-1.638-7.74-.127-9.393 3.419l-15.693 33.73c-1.652 3.531-.113 7.727 3.419 9.379l2.98.664a7.046 7.046 0 006.399-4.082zm-37.107 10.015c21.739-41.853 23.222-80.937 4.436-116.136a7.062 7.062 0 00-6.244-3.743c-5.226 0-8.771 5.621-6.215 10.396 16.47 30.849 14.945 65.497-4.52 102.971a7.066 7.066 0 003.023 9.52 7.037 7.037 0 003.249.805 7.085 7.085 0 006.271-3.813zm91.883 86.091c28.491-20.255 63.04-23.165 102.717-8.658 4.619 1.681 9.492-1.738 9.492-6.639a7.086 7.086 0 00-4.633-6.639c-44.296-16.201-83.252-12.712-115.768 10.425-3.164 2.26-3.913 6.667-1.653 9.859a7.074 7.074 0 005.749 2.952 7.077 7.077 0 004.096-1.3zm53.068-95.442l-23.97.198 13.249 19.986-7.218 22.855 23.095-6.427 19.506 13.927 1.031-23.956 19.281-14.252-22.473-8.362-7.599-22.741-14.902 18.772zM331.69 317.439c3.898-.127 6.949-3.39 6.822-7.303-.791-22.981 5.085-27.36 19.45-28.97 23.857-2.698 25.213-18.532 26.018-27.996.749-8.998 1.003-12.02 10.919-12.755 8.899-.65 18.8-2.26 24.86-9.308 6.512-7.599 6.582-19.182 5.678-30.567-.296-3.898-3.757-6.751-7.585-6.483a7.048 7.048 0 00-6.483 7.585c.875 11.116.155 17.374-2.331 20.255-2.104 2.458-6.78 3.828-15.17 4.436-21.936 1.61-23.222 16.653-23.97 25.651-.805 9.435-1.158 13.743-13.504 15.127-29.309 3.306-32.699 22.869-32.007 43.505.141 3.814 3.263 6.823 7.062 6.823h.241zm110.768-122.535c0 14.21 11.554 25.764 25.778 25.764 14.21 0 25.764-11.554 25.764-25.764 0-14.223-11.554-25.778-25.764-25.778-14.224 0-25.778 11.555-25.778 25.778zm-93.55-40.129c15.594 0 28.25 12.67 28.25 28.25 0 15.594-12.656 28.25-28.25 28.25-15.58 0-28.25-12.656-28.25-28.25 0-15.58 12.67-28.25 28.25-28.25z" fill="#fff"/></g><defs><clipPath id="clip0"><path fill="#fff" transform="translate(155 155)" d="M0 0h339v339H0z"/></clipPath></defs></svg>

<svg width="650" height="650" viewBox="0 0 650 650" fill="none" xmlns="http://www.w3.org/2000/svg">
<path d="M0 325C0 81.25 81.25 0 325 0C568.75 0 650 81.25 650 325C650 568.75 568.75 650 325 650C81.25 650 0 568.75 0 325Z" fill="#266DD3"/>
<g clip-path="url(#clip0)">
<path fill-rule="evenodd" clip-rule="evenodd" d="M223.125 464.805L261.743 448.265L215.964 323.301L193.914 385.055L223.125 464.805ZM186.485 405.847L162.707 472.423C159.771 480.643 168.038 488.416 176.062 484.979L210.13 470.384L186.485 405.847ZM274.738 442.699L316.18 424.93L266.997 295.813L246.789 277.85C241.491 273.14 233.11 275.286 230.727 281.962L223.393 302.509L274.738 442.699ZM366.526 403.364C373.261 400.477 374.707 391.566 369.23 386.698L289.851 316.139L329.189 419.365L366.526 403.364ZM369.333 326.493L400.422 306.082C403.671 303.935 404.589 299.557 402.442 296.294C400.295 293.017 395.902 292.127 392.667 294.274L361.578 314.684C358.315 316.817 357.411 321.196 359.544 324.459C360.9 326.535 363.16 327.651 365.448 327.651C366.79 327.651 368.132 327.284 369.333 326.493ZM327.057 265.586L342.764 231.855C344.416 228.324 342.877 224.115 339.345 222.476C335.8 220.838 331.605 222.349 329.952 225.895L314.259 259.625C312.607 263.156 314.146 267.352 317.678 269.004L320.658 269.668C323.328 269.668 325.856 268.157 327.057 265.586ZM289.95 275.601C311.689 233.748 313.172 194.664 294.386 159.465C293.114 157.078 290.671 155.722 288.142 155.722C282.916 155.722 279.371 161.343 281.927 166.118C298.397 196.967 296.872 231.615 277.407 269.089C275.613 272.55 276.969 276.815 280.43 278.609C281.461 279.146 282.577 279.414 283.679 279.414C286.221 279.414 288.693 278.016 289.95 275.601ZM381.833 361.692C410.324 341.437 444.873 338.527 484.55 353.034C489.169 354.715 494.042 351.296 494.042 346.395C494.042 343.528 492.277 340.816 489.409 339.756C445.113 323.555 406.157 327.044 373.641 350.181C370.477 352.441 369.728 356.848 371.988 360.04C373.373 361.961 375.534 362.992 377.737 362.992C379.164 362.992 380.59 362.568 381.833 361.692ZM434.901 266.25L410.931 266.448L424.18 286.434L416.962 309.289L440.057 302.862L459.563 316.789L460.594 292.833L479.875 278.581L457.402 270.219L449.803 247.478L434.901 266.25ZM331.69 317.439C335.588 317.312 338.639 314.049 338.512 310.136C337.721 287.155 343.597 282.776 357.962 281.166C381.819 278.468 383.175 262.634 383.98 253.17C384.729 244.172 384.983 241.15 394.899 240.415C403.798 239.765 413.699 238.155 419.759 231.107C426.271 223.508 426.341 211.925 425.437 200.54C425.141 196.642 421.68 193.789 417.852 194.057C413.968 194.354 411.058 197.758 411.369 201.642C412.244 212.758 411.524 219.016 409.038 221.897C406.934 224.355 402.258 225.725 393.868 226.333C371.932 227.943 370.646 242.986 369.898 251.984C369.093 261.419 368.74 265.727 356.394 267.111C327.085 270.417 323.695 289.98 324.387 310.616C324.528 314.43 327.65 317.439 331.449 317.439H331.69ZM442.458 194.904C442.458 209.114 454.012 220.668 468.236 220.668C482.446 220.668 494 209.114 494 194.904C494 180.681 482.446 169.126 468.236 169.126C454.012 169.126 442.458 180.681 442.458 194.904ZM348.908 154.775C364.502 154.775 377.158 167.445 377.158 183.025C377.158 198.619 364.502 211.275 348.908 211.275C333.328 211.275 320.658 198.619 320.658 183.025C320.658 167.445 333.328 154.775 348.908 154.775Z" fill="white"/>
</g>
<defs>
<clipPath id="clip0">
<rect width="339" height="339" fill="white" transform="translate(155 155)"/>
</clipPath>
</defs>
</svg>
